X: 297
T: Paddy Won’t You Drink Some Good Old Cider
B: canberra pickers and fiddlers
B: tunes
M:4/4
L:1/8
Q: 1/4=100
K:D
V:1 
F A2B (AD)FD|GB2A (Bc)BA|FA2F (DF)AB|A2F2E2D2|
F A2B (AD)FD|GB2A (Bc)BA|FA2F (DF)AA|d2F2E2D2:|
|:f2([df][de])[d2f2]ef|g2 f2 e2 d2 |e4 e2 AB|d2F2E2D2:|
W: Paddy won't you have some , paddy won't you drink some
W: Paddy won't you get some, good old cider
W: You be the grey horse, I'll be the rider
W: We'll go to Wyatt and get some cider
W: 
W: pick me a horse and lighter saddle
W: pretty little girl to rid her straddle
W: Paddy won't you have some , paddy won't you drink some
W: Paddy won't you get some, good old cider
W: 
W: little cider last night, some the night before
W: going back tomorrow night, to get a little more
W: Paddy won't you have some , paddy won't you drink some
W: Paddy won't you get some, good old cider
W: 
% abcbook-tune_id 63da593418a2009c1f104243
% abcbook-tune_composer_id 
% abcbook-link-0 https://www.youtube.com/watch?v=w56ulHn-Auk
% abcbook-link-start-at-0 6.5
% abcbook-boost 0
% abcbook-difficulty 0
% abcbook-tags canberra pickers and fiddlers,old time tunes,© free
% abcbook-tablature 
% abcbook-transpose 
% abcbook-tuning ADAE
% abcbook-lastupdated 1732673008979
% abcbook-src-url https://tunebook.net/scrape/tunes.abc
% abcbook-soundfonts 
% abcbook-repeats 1
%%gchordfont "itim-music,Itim" 20

